X: 1375
T: The Sailor's Return
R:Reel
N:Collected by F. O'Neill
B:O'Neill's 1375
Z:Transcribed by Trish O'Neil
M:C|
L:1/8
K:Gm
BAGF DGGB|AFcF dFcF|BAGF (3D=E^F GA|BABc dgga|
(3bag a^f gdd=e|fdcB AFF2|BAGF (3D=E^F GA|(Bd)cA (BG)G2||
Ggg^f gag=f|Fff=e fgfA|Ggg^f dgga| (3bag af dgga|
(3bag (3agf gdd=e|fdcB AFF2|BAGF (3D=E^F GA|(Bd)cA BGG2|]
